resources/svg/simohamed-o.svg

<svg width="15" height="15" viewBox="0 0 15 15" fill="none" xmlns="http://www.w3.org/2000/svg">
<path d="M12.5 5.5V8.5C12.5 9.79822 12.0789 11.0614 11.3 12.1L10.7 12.9C9.94459 13.9072 8.75903 14.5 7.5 14.5C6.24098 14.5 5.05542 13.9072 4.3 12.9L3.7 12.1C2.92107 11.0614 2.50001 9.79822 2.50001 8.5V5.5M12.5 5.5C12.5 2.73858 10.2614 0.5 7.5 0.5C4.73858 0.5 2.50001 2.73858 2.50001 5.5M12.5 5.5L11.3787 4.37868C10.8161 3.81607 10.053 3.5 9.25736 3.5H5.74265C4.947 3.5 4.18393 3.81607 3.62133 4.37868L2.50001 5.5M5 8.5H6M9 8.5H10M6 6.5H2.50001C1.4841 6.5 0.738684 7.45472 0.985076 8.44029L1.1362 9.04479C1.35001 9.90003 2.11844 10.5 3.00001 10.5M9 6.5H12.5C13.5159 6.5 14.2613 7.45472 14.0149 8.44029L13.8638 9.04479C13.65 9.90003 12.8816 10.5 12 10.5M3.00001 11L3.83742 11.5024C4.92533 12.1552 6.17019 12.5 7.43889 12.5H7.56112C8.82982 12.5 10.0747 12.1552 11.1626 11.5025L12 11M5.5 12L6.5 11H8.5L9.5 12" stroke="black"/>
</svg>

<svg viewBox="0 0 15 15" fill="none" xmlns="http://www.w3.org/2000/svg" fill="currentColor"><path d="M12.5 5.5v3a6 6 0 01-1.2 3.6l-.6.8a4 4 0 01-6.4 0l-.6-.8a6 6 0 01-1.2-3.6v-3m10 0a5 5 0 00-10 0m10 0l-1.121-1.121A3 3 0 009.257 3.5H5.743a3 3 0 00-2.122.879L2.5 5.5m2.5 3h1m3 0h1m-4-2H2.5A1.562 1.562 0 00.985 8.44l.151.605A1.921 1.921 0 003 10.5m6-4h3.5c1.016 0 1.761.955 1.515 1.94l-.151.605A1.921 1.921 0 0112 10.5M3 11l.837.502a7 7 0 003.602.998h.122a7 7 0 003.602-.998L12 11m-6.5 1l1-1h2l1 1" stroke="currentColor"/></svg>
